X: 8
T: Ciebie będę, Boże prawy,
C: Mikołaj Gomółka
%%abc-version 2.0
%%abcx-abcm2ps-target-version 5.9.1 (29 Sep 2008)
%%abc-creator hum2abc beta
%%abcx-conversion-date 2021/10/04 07:59:08
%%abc-edited-by Leszek Kubiak
%%abcx-initial-encoding-date 2020-02-01
%%humdrum-veritas 86372879
%%humdrum-veritas-data 344964472
%%linebreak <none>
%%barnumbers 0
L: 1/4
M: C|
N: Derived from pl-wn--sd-xvi-qu-273--009_gomolka-mikolaj--ciebie-bede-boze-prawy.krn
%%staves [1 2 3 4]
V: 1
V: 2 clef=alto
V: 3 clef=alto
V: 4
K: F
[V:1] A6BA [|] 
[V:2] F4F3E [|] 
[V:3] C4D3C [|] 
[V:4] F,4D,4 [|] 
[V:1] GFG2G2c4 [|] 
[V:2] D4E2G4 [|] 
[V:3] B,4C2E4 [|] 
[V:4] G,4C,2C4 [|] 
[V:1] c2A2B2 [|] 
[V:2] AGFEF2 [|] 
[V:3] F4ED [|] 
[V:4] A,2D4 [|] 
[V:1] c2c2d3c [|] 
[V:2] G2A2B2B,C [|] 
[V:3] E2F2F2D3 [|] 
[V:4] C2F,2B,3A, [|] 
[V:1] B2AGABc4 [|] 
[V:2] DCDEF2G2 [|] 
[V:3] CB,2C2E2 [|] 
[V:4] G,4F,2E,2 [|] 
[V:1] B2c2c2 [|] 
[V:2] A2GFE2G2 [|] 
[V:3] D4C2E2 [|] 
[V:4] F,2G,2C,2C2 [|] 
[V:1] c4F3G [|] 
[V:2] A2>G2F2D2 [|] 
[V:3] F2>E2D4 [|] 
[V:4] F,4B,4 [|] 
[V:1] A2A4G2 [|] 
[V:2] E2F2DCDE [|] 
[V:3] C2D2B,2B,2 [|] 
[V:4] A,2D,2G,2G,2 [|] 
[V:1] A2G2A2GF [|] 
[V:2] F2E2FED2 [|] 
[V:3] A,2C2A,2B,A, [|] 
[V:4] F,2C,2F,2B,,2 [|] 
[V:1] E2F4E2 [|] 
[V:2] C2B,2C3B, [|] 
[V:3] G,2F,2G,4 [|] 
[V:4] C,2D,2C,4 [|] 
[V:1] F8 |]  
[V:2] A,8 |]  
[V:3] F,8 |]  
[V:4] F,8 |]  


